deployments/warp_routes/RISE/logo.svg

<svg xmlns="http://www.w3.org/2000/svg" width="390" height="390" fill="none" viewBox="0 0 390 390"><path fill="#111217" d="M0 0h390v390H0z"/><path fill="#fff" d="M272.938 146.166h-.009l.009 51.163-50.673.009.009 50.731-50.217.009.009 50.743-54.994.01-.01-54.996 50.216-.009-.008-46.49-50.212.009-.01-54.996 50.198-.009-.009-51.149 50.697-.009v-.003l54.994-.01zm-100.887 46.916 45.892-.008-.008-46.896-45.892.008z"/></svg>

<svg width="390" height="390" viewBox="0 0 390 390" fill="none" xmlns="http://www.w3.org/2000/svg">
<rect width="390" height="390" fill="#111217"/>
<path d="M272.938 146.166L272.929 146.166L272.938 197.329L222.265 197.338L222.274 248.069L172.057 248.078L172.066 298.821L117.072 298.831L117.062 243.835L167.278 243.826L167.27 197.336L117.058 197.345L117.048 142.349L167.246 142.34L167.237 91.1912L217.934 91.1822L217.934 91.1792L272.928 91.1694L272.938 146.166ZM172.051 193.082L217.943 193.074L217.935 146.178L172.043 146.186L172.051 193.082Z" fill="white"/>
</svg>
